ufans-frontend-package/public/assets/images/new-settings/two-factor-auth.svg

<?xml version="1.0"?>
<svg xmlns="http://www.w3.org/2000/svg" xmlns:xlink="http://www.w3.org/1999/xlink" xmlns:svgjs="http://svgjs.com/svgjs" version="1.1" width="512" height="512" x="0" y="0" viewBox="0 0 512 512" style="enable-background:new 0 0 512 512" xml:space="preserve" class=""><g><g xmlns="http://www.w3.org/2000/svg"><path d="m459.669 82.906-196-81.377c-4.91-2.038-10.429-2.039-15.338 0l-196 81.377c-7.465 3.1-12.331 10.388-12.331 18.471v98.925c0 136.213 82.329 258.74 208.442 310.215 4.844 1.977 10.271 1.977 15.116 0 126.111-51.474 208.442-174.001 208.442-310.215v-98.925c0-8.083-4.865-15.371-12.331-18.471zm-27.669 117.396c0 115.795-68 222.392-176 269.974-105.114-46.311-176-151.041-176-269.974v-85.573l176-73.074 176 73.074zm-198.106 67.414 85.964-85.963c7.81-7.81 20.473-7.811 28.284 0s7.81 20.474-.001 28.284l-100.105 100.105c-7.812 7.812-20.475 7.809-28.284 0l-55.894-55.894c-7.811-7.811-7.811-20.474 0-28.284s20.474-7.811 28.284 0z" fill="#6661e7" data-original="#000000" class=""/></g></g></svg>

<svg xmlns="http://www.w3.org/2000/svg" width="432" height="512" viewBox="0 0 432 512">
  <g id="two-factor-auth" transform="translate(-40 0)">
    <g id="Group_1" data-name="Group 1">
      <path id="Path_1" data-name="Path 1" d="M459.669,82.906l-196-81.377a20,20,0,0,0-15.338,0l-196,81.377A20,20,0,0,0,40,101.377V200.3A334.933,334.933,0,0,0,248.442,510.517a20,20,0,0,0,15.116,0A334.934,334.934,0,0,0,472,200.3V101.377a20,20,0,0,0-12.331-18.471ZM432,200.3A295.015,295.015,0,0,1,255.961,470.293,295.009,295.009,0,0,1,80,200.3V114.729L256,41.655l176,73.074ZM233.894,267.716l85.964-85.963a20,20,0,1,1,28.283,28.284l-100.105,100.1a20,20,0,0,1-28.284,0l-55.894-55.894a20,20,0,1,1,28.284-28.284Z" fill="#e44499"/>
    </g>
  </g>
</svg>
